X:399
T:Sailor's Delight,The. (p)1698.PLFD.399
M:6/4
L:1/4
Q:3/4=110
S:Playford, Dancing Master,9th Ed,extra Supplement(9D),1698
O:England
H:1698.
Z:Chris Partington.
K:D
A|FAFAFA|d3A2G/F/|G>AGF2E|E3-E2G/F/|
GFGEFG|d3e2a/g/|f>ga/f/e2d|d3-d2:|
|:g/f/|g>fgeag|fa2-a2g/f/|g>ag/f/ef^d|e3-e2(c/B/4c/4)|
d>cBc/B/A/G/F|G>ABE2d/c/|dFdE2D|D3-D2:|
